ion/speedometer-sharp.svg

<svg viewBox="0 0 512 512" xmlns="http://www.w3.org/2000/svg"><path d="M256 48C123.46 48 16 156.55 16 290.56l-.001-.001c-.13 59.17 21.31 116.36 60.32 160.87 1.18 1.3 2.25 2.6 3.43 3.79 9.45 8.78 12.32 8.78 19.82 8.78s12.43 0 19.93-8.88c32.5-38.48 82.5-55.12 136.5-55.12s104.07 16.71 136.5 55.12c7.5 8.88 12.32 8.88 19.93 8.88 7.61 0 11.3 0 19.82-8.78 1.22-1.25 2.25-2.49 3.43-3.79v0c39-44.51 60.44-101.7 60.32-160.87 0-134.01-107.46-242.56-240-242.56Zm-16 64h32v64h-32Zm-96 192H80v-32h64Zm21.49-83.88l-45.25-45.26 22.62-22.62 45.26 45.25ZM278.6 307.4v0c-1.95 2.69-4.31 5.05-7 7h-.001c-13.64 9.51-32.41 6.17-41.93-7.47 -9.37-13.43-6.3-31.88 6.92-41.54l83.4-41.4Zm45.28-109.91l45.26-45.25 22.62 22.62 -45.25 45.26ZM432 304h-64v-32h64Z"/></svg>

<svg xmlns="http://www.w3.org/2000/svg" width="512" height="512" viewBox="0 0 512 512"><path d="M256,48C123.46,48,16,156.55,16,290.56A243.3,243.3,0,0,0,76.32,451.43c1.18,1.3,2.25,2.6,3.43,3.79C89.2,464,92.07,464,99.57,464s12.43,0,19.93-8.88C152,416.64,202,400,256,400s104.07,16.71,136.5,55.12C400,464,404.82,464,412.43,464s11.3,0,19.82-8.78c1.22-1.25,2.25-2.49,3.43-3.79A243.3,243.3,0,0,0,496,290.56C496,156.55,388.54,48,256,48Zm-16,64h32v64H240ZM144,304H80V272h64Zm21.49-83.88-45.25-45.26,22.62-22.62,45.26,45.25ZM278.6,307.4a31,31,0,0,1-7,7,30.11,30.11,0,0,1-35-49L320,224Zm45.28-109.91,45.26-45.25,22.62,22.62-45.25,45.26ZM432,304H368V272h64Z"/></svg>
